svgs/regular/wheat.svg

<svg xmlns="http://www.w3.org/2000/svg" viewBox="0 0 512 512"><!-- Font Awesome Pro 6.0.0-alpha2 by @fontawesome - https://fontawesome.com License - https://fontawesome.com/license (Commercial License) --><path d="M460.926 152.484C457.801 149.234 463.176 152.359 479.052 137.483C505.678 108.607 513.803 62.355 511.678 17.353C510.803 -2.398 487.677 0.102 481.052 0.102C446.8 0.102 404.174 6.477 375.422 33.229C356.922 51.854 363.672 55.104 359.172 50.479L319.545 10.978C313.295 4.727 303.169 4.727 297.044 10.978L262.918 44.979C250.292 57.605 242.292 72.98 238.166 89.106C227.041 80.856 217.791 90.231 217.666 90.356L183.914 124.108C171.289 136.733 163.413 151.984 159.288 168.11C148.038 159.984 138.912 169.235 138.662 169.485L104.786 203.361C67.284 240.863 67.284 301.741 104.786 339.242L121.786 356.243L7.032 470.998C-2.344 480.374 -2.344 495.624 7.032 505C11.782 509.625 17.907 512 24.032 512C30.158 512 36.283 509.625 41.033 505L155.663 390.12L172.539 407.12C210.04 444.622 270.793 444.622 308.294 407.12L342.296 372.994C348.046 367.369 348.296 358.618 343.671 352.368C359.797 348.243 375.047 340.242 387.673 327.617L421.299 293.865C426.925 288.24 427.3 279.615 422.674 273.364C438.8 269.239 454.051 261.239 466.676 248.613L500.428 214.737C506.678 208.486 506.678 198.361 500.428 192.111L460.926 152.484ZM166.913 310.866L155.663 322.241L138.662 305.241C119.911 286.49 119.911 256.114 138.662 237.363L149.913 225.987L166.913 242.988C176.039 252.113 181.039 264.114 181.039 276.989C181.039 289.865 176.039 301.866 166.913 310.866ZM296.794 78.981L308.294 67.48L325.295 84.481C343.921 103.232 344.046 133.608 325.295 152.484L313.795 163.859L296.794 146.984C278.043 128.233 278.043 97.856 296.794 78.981ZM217.791 158.109L228.916 146.984L245.917 163.984C264.668 182.735 264.668 213.112 245.917 231.862L234.791 242.988L217.791 225.987C199.04 207.236 199.04 176.86 217.791 158.109ZM274.418 373.119C255.667 391.995 225.291 391.995 206.54 373.119L189.539 356.243L201.165 344.617C219.916 325.867 250.167 325.992 268.918 344.743L285.794 361.618L274.418 373.119ZM353.796 293.74C335.046 312.491 304.669 312.491 285.919 293.74L268.918 276.739L280.043 265.614C298.794 246.863 329.17 246.863 347.921 265.614L364.797 282.615L353.796 293.74ZM432.675 214.612C413.924 233.488 383.548 233.488 364.797 214.612L347.921 197.736L359.172 186.36C377.922 167.61 408.299 167.61 427.05 186.36L443.925 203.361L432.675 214.612ZM390.048 121.983C391.673 101.982 396.798 80.356 408.799 67.73C420.299 57.48 439.3 50.979 463.301 48.854C461.301 72.73 454.926 91.856 445.05 103.482C433.175 113.732 414.049 120.107 390.048 121.983Z"/></svg>

<svg xmlns="http://www.w3.org/2000/svg" viewBox="0 0 512 512"><!--! Font Awesome Pro 6.0.0-alpha3 by @fontawesome - https://fontawesome.com License - https://fontawesome.com/license (Commercial License) --><path d="M460.9 152.5c-3.125-3.25 2.233-.2416 18.11-15.12c26.63-28.88 34.75-75.06 32.63-120.1c-.875-19.75-24-17.25-30.63-17.25c-34.25 0-76.95 6.375-105.7 33.13c-18.5 18.63-11.66 21.93-16.16 17.3l-39.63-39.5c-6.25-6.25-16.38-6.25-22.5 0l-34.13 34C250.3 57.6 242.3 72.98 238.2 89.11C227 80.86 217.8 90.23 217.7 90.36L183.9 124.1C171.3 136.7 163.4 151.1 159.3 168.1C148 159.1 138.9 169.2 138.7 169.5L104.8 203.4c-37.5 37.5-37.5 98.38 0 135.9l17 17l-114.8 114.8c-9.375 9.375-9.375 24.63 0 34C11.78 509.6 17.91 512 24.03 512c6.125 0 12.25-2.375 17-7l114.6-114.9l16.88 17c37.5 37.5 98.25 37.5 135.8 0l34-34.13c5.75-5.625 6-14.38 1.375-20.63c16.13-4.125 31.38-12.13 44-24.75l33.63-33.75c5.625-5.625 6-14.25 1.375-20.5c16.13-4.125 31.38-12.13 44-24.75l33.75-33.88c6.25-6.25 6.25-16.38 0-22.63L460.9 152.5zM166.9 310.9l-11.25 11.38L138.7 305.2c-18.75-18.75-18.75-49.13 0-67.88L149.9 225.1l17 17C176 252.1 181 264.1 181 276.1C181 289.9 176 301.9 166.9 310.9zM296.8 78.98l11.5-11.5l17 17c18.63 18.75 18.75 49.13 0 68l-11.5 11.38l-17-16.88C278 128.2 278 97.86 296.8 78.98zM217.8 158.1l11.13-11.13l17 17c18.75 18.75 18.75 49.13 0 67.88L234.8 242.1L217.8 225.1C199 207.2 199 176.9 217.8 158.1zM274.4 373.1c-18.75 18.88-49.13 18.88-67.88 0l-17-16.88l11.63-11.63c18.75-18.75 49-18.63 67.75 .125l16.88 16.88L274.4 373.1zM353.8 293.7c-18.75 18.75-49.13 18.75-67.88 0l-17-17l11.13-11.13c18.75-18.75 49.13-18.75 67.88 0l16.88 17L353.8 293.7zM432.7 214.6c-18.75 18.88-49.13 18.88-67.88 0l-16.88-16.88l11.25-11.38c18.75-18.75 49.13-18.75 67.88 0l16.88 17L432.7 214.6zM390 121.1c1.625-20 6.75-41.63 18.75-54.25c11.5-10.25 30.5-16.75 54.5-18.88c-2 23.88-8.375 43-18.25 54.63C433.2 113.7 414 120.1 390 121.1z"/></svg>
